X:1
T:The Little Scotch Girl
M:2/2
L:1/4
K:C
 A| d3/4 d/4 d/2d/2 c d3/4 d/4| A G F3/2 G/2| A/2 d3/2 c d| A4| d3/4 d/4 d/2d/2 c/2c/2 A/2G/2|\
 F/2F/2 A c c| A/2 A G/2 D D| F G A c| A/2 A G/2 D E| D3||
